!!!PDT:	1923
!!!LANG: Non-Tone
!!!LING_GROUP: Siouan
!!!REG: Dakotas
!!!COM: Anon.
!!!OTL: Comrades, Sleep On
!!!ODT: <1918//
!!!MPN: Kekanatka [Crow's Heart]
!!!MLC: Fort Berthold Reservation, North Dakota, United States of America
!! Song was recorded during either the summer of 1912, 1915, or 1918.
!!!AGN: monody
!!!SOCIAL_FUNCTION: Mandan and Hidatsa War Songs
!!!AMT: irregular
!!!RWG: Transcribed pitches, durations, and meters are only approximate.
!! Drum not recorded.
**kern
*ICvox
*Imale
*clefG2
*k[b-]
*M3/4
*MM84
4f
=1
8g
8g
8g
[8f
8.f]
16c
=2
16g
16.g
32f
16a
4g
(8.g
16f)
=3
[4g
8g]
[8f
4f]
*M2/4
=4
16g
8.f
8g
8f
=5
16.c
32f
8c
16c
8.c
=6
4c
8f
8c
*clefF4
=7
16c
16B-
16B-
16G
4F
=8
8g
16.G
32A
8G
8G
=9
(8G
8F)
8.C
16C
=10
2C
==
*-
!!!CNT: Mandan
!!!TXO: Mandan
!!!OCY: United States
!!!OCL: Frances Densmore
!!!YOR: Frances Densmore, "Mandan and Hidatsa Music",
!!!YOR: Bulletin 80, page 153, No. 84
!!!PPR: Smithsonian Institution, Bureau of American Ethnology
!!!PPR: Government Printing Office
!!!PDT: 1923
!!!PPP: Washington, DC, United States of America
!!!YEC: Electronic Copyright 2000 David Huron
!!!YER: August 2000
!!!YEN: United States of America
!!!ENC: David Huron
!!!RDT: August 18, 2000
!!!EEV: Release 1.0
!!!AIN: tom, vox
